X: 1
T:The Lochaber Gathering
M:C|
L:1/8
Q:80
C:G. S. MacLennan
S:2/4 March
K:HP
|: {g}e3/4d/4|
{gcd}c{g}B/4{d}A3/4{g}A3/4B/4{g}c/4e3/4|
{Gdc}d3/4e/4{g}f3/4g/4a3/4e/4{g}f/4a3/4|  !
{cd}c{g}B/4{d}A3/4{g}A3/4c/4{gef}e3/4c/4|
{g}f3/4e/4{gde}d3/4c/4{gBG}B{g}e3/4d/4|
{gcd}c{g}B/4{d}A3/4{g}A3/4B/4{g}c/4e3/4|  !
{Gdc}d3/4e/4{g}f3/4g/4a3/4e/4{g}f/4a3/4|
c{GdGe}A3/4{d}c/4{g}c/4e3/4{gde}d3/4B/4|
{gcd}c{e}A{GAG}A:| |:  !
{g}f3/4g/4|
{ag}ae3/4f/4{gef}e3/4A/4{gef}e3/4c/4|
{ag}ac/4e3/4{g}f3/4e/4{gde}d3/4c/4|  !
{ag}ae3/4f/4{gef}e3/4A/4{g}c/4e3/4|
{g}f3/4e/4{gde}d3/4c/4{gBG}B{g}f3/4g/4|
{ag}ae3/4f/4{gef}e3/4A/4{gef}e3/4c/4|  !
{ag}ac/4e3/4{ag}a{ef}e3/4d/4|
{g}c{GdGe}A3/4{d}c/4{g}c/4e3/4{gde}d3/4B/4|
{gcd}c{e}A{GAG}A:| |:  !
{g}e3/4d/4|
{g}c{GdGe}A3/4{d}c/4{g}c/4e3/4{g}A3/4{d}c/4|
{g}d{GBGe}A3/4d/4{g}d/4f3/4{g}A3/4d/4|  !
{g}c{GdGe}A3/4{d}c/4{g}c/4A3/4{g}c/4e3/4|
{g}f3/4e/4{gde}d3/4c/4{gBG}B{gef}e3/4d/4|
{g}c{GdGe}A3/4{d}c/4{g}c/4e3/4{g}A3/4{d}c/4|  !
{g}d{GBGe}A3/4d/4{g}d/4f3/4{g}A3/4d/4|
{g}c{GdGe}A3/4{d}c/4{g}c/4e3/4{gde}d3/4B/4|
{gcd}c{e}A{GAG}A:| |:  !
{g}f3/4g/4|
a{GdG}a3/4e/4{g}c/4e3/4{g}c/4{d}A3/4|
{Gdc}d3/4f/4{gde}d3/4B/4{g}c/4e3/4{g}c/4{d}A3/4|  !
{Gdc}d3/4f/4{gBG}B3/4d/4{g}c/4e3/4{gAGAG}A3/4{d}c/4|
{g}f3/4e/4{gde}d3/4c/4{gBG}B{g}f3/4g/4|
a{GdG}a3/4e/4{g}c/4e3/4{g}c/4{d}A3/4|  !
{Gdc}d3/4f/4{gde}d3/4B/4{g}c/4e3/4{g}c/4{d}A3/4|
{g}c{GdGe}A3/4{d}c/4{g}c/4e3/4{gde}d3/4B/4|
{gcd}c{e}A{GAG}A:|  !
